-----BEGIN PGP PUBLIC KEY BLOCK-----

mQINBGqd8TABEACoYdi3VmBWStf67QxlPfpd729N0oJC8oPajXFnbzhNjhaOvHeT
qo73HcuzCDdoTCNBhtoIFDfew/vUpRBxgDJPWlwc6q7/+Jrd6x6iPCSh3VcZh0Uv
34UmYhZMLRjD1vnJFH/CoeEaKbUfy6qpCUX6RdqsKn3Dmkom7zrHKrggq4YnWfZM
2kX/X4rO8bqGaG5ZVx1nNuI6p8sfR/G/KPLy6KTG/F9Y5ohhDMLzvMPxY2SPcd8h
PxQmH3NGUrjco6RDvp9uApiSAv7qxwPBJ1byKOIUlnHz0VUucEyUGnFmIKA6aARQ
xQvw2gvyebWOXzWgGmjCv7weFx4e1cEwo/W7CALGuz2ip7QI4rJMwUVJVHhgYe4l
1Rt/aUq5LCqxOdM17p6YbleDpZ0tzScnEZ2/gQj1/kP9fWXwSSS6NQ75tXR2IOoU
dZky9Nw+cgj+CF8EVduKs3QuZL7noxD3RMqrq2WOx4I4G8iTSvI8MPkXlYr5Cb0E
maqO5pvDH6uaxJvBQkKlca5Tq5hoel2XPmjoPi0bseiLe8tP4in/Lojo+yrR87G5
r08CcziAPBKgU9Y+h/DAW2w+hjUOpZxjaf9IcGR9x9GnMh0xjUUXR4y33FvRe+Bs
fuRuvuSAzaN2Yo+w4fLNeFryd0B+Im6j8v5Kczb9t0IUyFd4EqVF33RJBwARAQAB
tDBQZXJpdHVzIFJlbGVhc2UgU2lnbmluZyA8ZG9sbHNwYWNlZ2F5QGdtYWlsLmNv
bT6JAlcEEwEKAEEWIQTF+qAGHFYJbA21fpO8EVLdzkCXkgUCap3xMAIbAwUJA8Jn
AAULCQgHAgIiAgYVCgkICwIEFgIDAQIeBwIXgAAKCRC8EVLdzkCXktTsD/9rMLdr
rk2EdRZQdcgjpVn8sbatCPuGIVmsSO3oDS7gz1NgnRkUHI8WZzg7diMQe1RMimGS
fQvljCUwWHf6XALNpnWXTake/Qn9GmVjU5e0EI+jcXFO0RFBQ3C50O84R1d6fbmQ
J9WREdjWv6bhyb54VDl6h5FLsP+1WpXBopjN1GJ/SFTzVLfCe/oWnaV6f6eI3ETx
ujTpECEZCCk8sGpkWzoEIeOwxvECpXzTplgeTLMiuKJIepuWhwxugPd2dnBlTu74
3ULp+hFhsYOoV1/lCLwLziOrstm/DtygQbvfsWCX2EimjnBy0ExpBQHaY2THETdF
okgeIdFhE0NzQEG5ysrgVShcxhnfsDEImxGTfsD/LN5Rm4KBNQUAUIKPC+zeamEq
ED3abttw95zc4DkSJ3gaUIBz0baFoaeBsAhYmSQXHn6PjHmjtuifurQ+uHmKd01E
DKIZK1TBzPpmAlzOs+8KM78qb2SbgRfKz8I3dRWyAoa+SbANvYsBPp9p4K7rbUdu
5R0HhymdWtO6I/+G5ajLOcrYlsXsz6klPDUs5MQTSSCLiUYtAqczQGtYXuvBXJsw
mM8ysgm+SS5FthD/fA70k1hH72K9r5sgGOf3cK/C/fR6ik5cEc+B8wp1uzN/HWKl
Np5p5I2wTckLAcH1ngc7bqBCGlBlQRhU6TNOMw==
=wG4g
-----END PGP PUBLIC KEY BLOCK-----
